X: 121
T:Old Copperplate
R:reel
Z:Barney
M:4/4
L:1/8
K:Ador
G|A2 EA cA ~A2|ag ed cA FA|G2 DG BG ~G2|ge dc BG GB|
A2 EA cA ~A2|ag ed cA AG|AB cd ef ge| ag ed cA A2:|
ag eg ~a3b|ag ed cA ~A2|gf ef g3a|ge dc BG ~G2|
ag eg a3b|ag ed cA AG|AB cd ef ge| ag ed cA~A2:|

